_includes/icons/color-trust.svg

<svg fill="#666" height="50" viewBox="0 0 48 48" width="50" xmlns="http://www.w3.org/2000/svg"><path d="m32.398438 28.101563-13.199219 7.796875 3.101562 4 12.699219-7.597657c1.101563-.699218 1.5-2.199218.800781-3.300781-.699218-1.199219-2.199218-1.601562-3.402343-.898437z" fill="#e39d36"/><path d="m36 28.5-13.199219 7.800781 3.097657 4 12.601562-7.601562c1.101563-.699219 1.5-2.199219.800781-3.300781-.699218-1.097657-2.199218-1.5-3.300781-.898438z" fill="#eda740"/><path d="m38.898438 29.398438-12.398438 7.300781-5.898437-3.398438 2.898437 1.597657c1.300781.703125 2.898438.5 3.898438-.597657 1.300781-1.5.902343-3.800781-.796875-4.699218l-12.402344-6.800782c-1.097656-.601562-2.5-.601562-3.699219 0l-5.5 3.300782v.097656 10.699219l4-2.5 15.101563 8.203125c1.199218.597656 2.597656.597656 3.796875-.101563l13.800781-8.300781c1.300781-.800781 1.699219-2.398438.902344-3.699219-.703125-1.398437-2.402344-1.800781-3.703125-1.101562z" fill="#ffb74d"/><path d="m26.5 36.800781-1.300781-.902343-10.699219-6 8 6.601562c1.199219.898438 2.699219 1 4 .300781z" fill="#eda740"/><path d="m24.398438 34.199219c-.898438-.5-.597657-1.300781-.097657-2.199219.5-.898437.898438-1.601562 1.800782-1.101562.898437.5 1.296875 1.601562.796875 2.5-.398438.902343-1.5 1.203125-2.5.800781z" fill="#ffcc80"/><path d="m36.5 15.101563c.898438-1.101563 1.5-2.5 1.5-4 0-3.300782-2.800781-6.101563-6.300781-6.101563-2.5 0-4.699219 1.398438-5.699219 3.601563-1-2.203125-3.199219-3.601563-5.699219-3.601563-3.5 0-6.300781 2.800781-6.300781 6.199219 0 1.601562.601563 3 1.601563 4.101562 5.296875 6.097657 10.398437 9.699219 10.398437 9.699219s5.300781-3.5 10.5-9.898437z" fill="#ff3d00"/></svg>

<svg xmlns="http://www.w3.org/2000/svg" viewBox="0 0 48 48" width="50" height="50" fill="#666"><path d="M 32.398438 28.101563 L 19.199219 35.898438 L 22.300781 39.898438 L 35 32.300781 C 36.101563 31.601563 36.5 30.101563 35.800781 29 C 35.101563 27.800781 33.601563 27.398438 32.398438 28.101563 Z" fill="#e39d36"/><path d="M 36 28.5 L 22.800781 36.300781 L 25.898438 40.300781 L 38.5 32.699219 C 39.601563 32 40 30.5 39.300781 29.398438 C 38.601563 28.300781 37.101563 27.898438 36 28.5 Z" fill="#eda740"/><path d="M 38.898438 29.398438 L 26.5 36.699219 L 20.601563 33.300781 L 23.5 34.898438 C 24.800781 35.601563 26.398438 35.398438 27.398438 34.300781 C 28.699219 32.800781 28.300781 30.5 26.601563 29.601563 L 14.199219 22.800781 C 13.101563 22.199219 11.699219 22.199219 10.5 22.800781 L 5 26.101563 C 5 26.101563 5 26.101563 5 26.199219 L 5 36.898438 L 9 34.398438 L 24.101563 42.601563 C 25.300781 43.199219 26.699219 43.199219 27.898438 42.5 L 41.699219 34.199219 C 43 33.398438 43.398438 31.800781 42.601563 30.5 C 41.898438 29.101563 40.199219 28.699219 38.898438 29.398438 Z" fill="#ffb74d"/><path d="M 26.5 36.800781 L 25.199219 35.898438 L 14.5 29.898438 L 22.5 36.5 C 23.699219 37.398438 25.199219 37.5 26.5 36.800781 Z" fill="#eda740"/><path d="M 24.398438 34.199219 C 23.5 33.699219 23.800781 32.898438 24.300781 32 C 24.800781 31.101563 25.199219 30.398438 26.101563 30.898438 C 27 31.398438 27.398438 32.5 26.898438 33.398438 C 26.5 34.300781 25.398438 34.601563 24.398438 34.199219 Z" fill="#ffcc80"/><path d="M 36.5 15.101563 C 37.398438 14 38 12.601563 38 11.101563 C 38 7.800781 35.199219 5 31.699219 5 C 29.199219 5 27 6.398438 26 8.601563 C 25 6.398438 22.800781 5 20.300781 5 C 16.800781 5 14 7.800781 14 11.199219 C 14 12.800781 14.601563 14.199219 15.601563 15.300781 C 20.898438 21.398438 26 25 26 25 C 26 25 31.300781 21.5 36.5 15.101563 Z" fill="#ff3d00"/></svg>
